img/svg/google-play.svg

<svg width="162" height="48" viewBox="0 0 162 48" fill="none" xmlns="http://www.w3.org/2000/svg">
<g clip-path="url(#clip0_2677:5751)">
<path d="M156 47.991H6C2.64 47.991 0 45.3519 0 41.9931V6.00571C0 2.64689 2.64 0.0078125 6 0.0078125H156C159.36 0.0078125 162 2.64689 162 6.00571V41.9931C162 45.3519 159.36 47.991 156 47.991Z" fill="#424551"/>
<path d="M156 0.967477C158.76 0.967477 161.04 3.24668 161.04 6.00571V41.9931C161.04 44.7522 158.76 47.0314 156 47.0314H6C3.24 47.0314 0.96 44.7522 0.96 41.9931V6.00571C0.96 3.24668 3.24 0.967477 6 0.967477H156ZM156 0.0078125H6C2.64 0.0078125 0 2.76685 0 6.00571V41.9931C0 45.3519 2.64 47.991 6 47.991H156C159.36 47.991 162 45.3519 162 41.9931V6.00571C162 2.76685 159.36 0.0078125 156 0.0078125Z" fill="#424551"/>
<path d="M56.8797 12.2438C56.8797 13.2034 56.6397 14.0431 56.0397 14.6429C55.3197 15.3627 54.4797 15.7226 53.3997 15.7226C52.3197 15.7226 51.4797 15.3627 50.7597 14.6429C50.0397 13.9232 49.6797 13.0835 49.6797 12.0039C49.6797 10.9242 50.0397 10.0845 50.7597 9.36478C51.4797 8.64503 52.3197 8.28516 53.3997 8.28516C53.8797 8.28516 54.3597 8.40511 54.8397 8.64503C55.3197 8.88495 55.6797 9.12486 55.9197 9.48474L55.3197 10.0845C54.8397 9.48474 54.2397 9.24482 53.3997 9.24482C52.6797 9.24482 51.9597 9.48474 51.4797 10.0845C50.8797 10.5644 50.6397 11.2841 50.6397 12.1238C50.6397 12.9635 50.8797 13.6833 51.4797 14.1631C52.0797 14.6429 52.6797 15.0028 53.3997 15.0028C54.2397 15.0028 54.8397 14.7629 55.4397 14.1631C55.7997 13.8032 56.0397 13.3234 56.0397 12.7236H53.3997V11.7639H56.8797V12.2438ZM62.3997 9.24482H59.1597V11.524H62.1597V12.3637H59.1597V14.6429H62.3997V15.6026H58.1997V8.40511H62.3997V9.24482ZM66.3597 15.6026H65.3997V9.24482H63.3597V8.40511H68.3997V9.24482H66.3597V15.6026ZM71.8797 15.6026V8.40511H72.8397V15.6026H71.8797ZM76.9197 15.6026H75.9597V9.24482H73.9197V8.40511H78.8397V9.24482H76.7997V15.6026H76.9197ZM88.3197 14.6429C87.5997 15.3627 86.7597 15.7226 85.6797 15.7226C84.5997 15.7226 83.7597 15.3627 83.0397 14.6429C82.3197 13.9232 81.9597 13.0835 81.9597 12.0039C81.9597 10.9242 82.3197 10.0845 83.0397 9.36478C83.7597 8.64503 84.5997 8.28516 85.6797 8.28516C86.7597 8.28516 87.5997 8.64503 88.3197 9.36478C89.0397 10.0845 89.3997 10.9242 89.3997 12.0039C89.3997 13.0835 89.0397 13.9232 88.3197 14.6429ZM83.7597 14.0431C84.2397 14.523 84.9597 14.8828 85.6797 14.8828C86.3997 14.8828 87.1197 14.6429 87.5997 14.0431C88.0797 13.5633 88.4397 12.8436 88.4397 12.0039C88.4397 11.1641 88.1997 10.4444 87.5997 9.96457C87.1197 9.48474 86.3997 9.12486 85.6797 9.12486C84.9597 9.12486 84.2397 9.36478 83.7597 9.96457C83.2797 10.4444 82.9197 11.1641 82.9197 12.0039C82.9197 12.8436 83.1597 13.5633 83.7597 14.0431ZM90.7197 15.6026V8.40511H91.7997L95.2797 14.0431V8.40511H96.2397V15.6026H95.2797L91.5597 9.72465V15.6026H90.7197Z" fill="white"/>
<path d="M81.7204 26.1595C78.8403 26.1595 76.5603 28.3188 76.5603 31.3177C76.5603 34.1967 78.8403 36.4759 81.7204 36.4759C84.6004 36.4759 86.8804 34.3167 86.8804 31.3177C86.8804 28.1988 84.6004 26.1595 81.7204 26.1595ZM81.7204 34.3167C80.1604 34.3167 78.8403 32.9971 78.8403 31.1977C78.8403 29.3984 80.1604 28.0788 81.7204 28.0788C83.2804 28.0788 84.6004 29.2784 84.6004 31.1977C84.6004 32.9971 83.2804 34.3167 81.7204 34.3167ZM70.5603 26.1595C67.6803 26.1595 65.4003 28.3188 65.4003 31.3177C65.4003 34.1967 67.6803 36.4759 70.5603 36.4759C73.4403 36.4759 75.7203 34.3167 75.7203 31.3177C75.7203 28.1988 73.4403 26.1595 70.5603 26.1595ZM70.5603 34.3167C69.0003 34.3167 67.6803 32.9971 67.6803 31.1977C67.6803 29.3984 69.0003 28.0788 70.5603 28.0788C72.1203 28.0788 73.4403 29.2784 73.4403 31.1977C73.4403 32.9971 72.1203 34.3167 70.5603 34.3167ZM57.2403 27.719V29.8782H62.4003C62.2803 31.0778 61.8003 32.0375 61.2003 32.6372C60.4803 33.357 59.2803 34.1967 57.2403 34.1967C54.0003 34.1967 51.6003 31.6776 51.6003 28.4387C51.6003 25.1998 54.1203 22.6807 57.2403 22.6807C58.9203 22.6807 60.2403 23.4005 61.2003 24.2402L62.7603 22.6807C61.4403 21.4811 59.7603 20.5215 57.3603 20.5215C53.0403 20.5215 49.3203 24.1202 49.3203 28.4387C49.3203 32.7572 53.0403 36.3559 57.3603 36.3559C59.7603 36.3559 61.4403 35.6362 62.8803 34.0767C64.3203 32.6372 64.8003 30.598 64.8003 29.0385C64.8003 28.5587 64.8003 28.0788 64.6803 27.719H57.2403ZM111.72 29.3984C111.24 28.1988 110.04 26.1595 107.4 26.1595C104.76 26.1595 102.6 28.1988 102.6 31.3177C102.6 34.1967 104.76 36.4759 107.64 36.4759C109.92 36.4759 111.36 35.0364 111.84 34.1967L110.16 32.9971C109.56 33.8368 108.84 34.4366 107.64 34.4366C106.44 34.4366 105.72 33.9568 105.12 32.8772L111.96 29.9982L111.72 29.3984ZM104.76 31.0778C104.76 29.1585 106.32 28.0788 107.4 28.0788C108.24 28.0788 109.08 28.5587 109.32 29.1585L104.76 31.0778ZM99.1204 35.9961H101.4V21.0013H99.1204V35.9961ZM95.5204 27.2391C94.9204 26.6393 93.9604 26.0396 92.7604 26.0396C90.2404 26.0396 87.8404 28.3188 87.8404 31.1977C87.8404 34.0767 90.1204 36.236 92.7604 36.236C93.9604 36.236 94.9204 35.6362 95.4004 35.0364H95.5204V35.7562C95.5204 37.6755 94.4404 38.7551 92.7604 38.7551C91.4404 38.7551 90.4804 37.7954 90.2404 36.9557L88.3204 37.7954C88.9204 39.115 90.3604 40.7944 92.8804 40.7944C95.5204 40.7944 97.6804 39.2349 97.6804 35.5162V26.3994H95.5204V27.2391ZM92.8804 34.3167C91.3204 34.3167 90.0004 32.9971 90.0004 31.1977C90.0004 29.3984 91.3204 28.0788 92.8804 28.0788C94.4404 28.0788 95.6404 29.3984 95.6404 31.1977C95.6404 32.9971 94.4404 34.3167 92.8804 34.3167ZM122.16 21.0013H116.76V35.9961H119.04V30.358H122.16C124.68 30.358 127.08 28.5587 127.08 25.6797C127.08 22.8007 124.68 21.0013 122.16 21.0013ZM122.28 28.1988H119.04V23.0406H122.28C123.96 23.0406 124.92 24.4801 124.92 25.5597C124.8 26.8793 123.84 28.1988 122.28 28.1988ZM136.08 26.0396C134.4 26.0396 132.72 26.7593 132.12 28.3188L134.16 29.1585C134.64 28.3188 135.36 28.0788 136.2 28.0788C137.4 28.0788 138.48 28.7986 138.6 29.9982V30.1181C138.24 29.8782 137.28 29.5183 136.32 29.5183C134.16 29.5183 132 30.7179 132 32.8772C132 34.9164 133.8 36.236 135.72 36.236C137.28 36.236 138 35.5162 138.6 34.7965H138.72V35.9961H140.88V30.2381C140.64 27.599 138.6 26.0396 136.08 26.0396ZM135.84 34.3167C135.12 34.3167 134.04 33.9568 134.04 32.9971C134.04 31.7975 135.36 31.4377 136.44 31.4377C137.4 31.4377 137.88 31.6776 138.48 31.9175C138.24 33.357 137.04 34.3167 135.84 34.3167ZM148.44 26.3994L145.92 32.8772H145.8L143.16 26.3994H140.76L144.72 35.5162L142.44 40.5545H144.72L150.84 26.3994H148.44ZM128.28 35.9961H130.56V21.0013H128.28V35.9961Z" fill="white"/>
<path d="M12.48 9.00586C12.12 9.36573 12 9.96552 12 10.6853V37.196C12 37.9157 12.24 38.5155 12.6 38.8754L12.72 38.9954L27.6 24.1206V23.8807L12.48 9.00586Z" fill="url(#paint0_linear_2677:5751)"/>
<path d="M32.4005 29.1574L27.4805 24.2391V23.8792L32.4005 18.9609L32.5205 19.0809L38.4005 22.4397C40.0805 23.3994 40.0805 24.9588 38.4005 25.9185L32.4005 29.1574Z" fill="url(#paint1_linear_2677:5751)"/>
<path d="M32.5205 29.0382L27.4805 24L12.4805 38.9948C13.0805 39.5946 13.9205 39.5946 15.0005 39.1147L32.5205 29.0382Z" fill="url(#paint2_linear_2677:5751)"/>
<path d="M32.5205 18.9622L15.0005 9.00566C13.9205 8.40587 13.0805 8.52583 12.4805 9.12562L27.4805 24.0004L32.5205 18.9622Z" fill="url(#paint3_linear_2677:5751)"/>
<path opacity="0.2" d="M32.4005 28.918L15.0005 38.7545C14.0405 39.3543 13.2005 39.2343 12.6005 38.7545L12.4805 38.8745L12.6005 38.9944C13.2005 39.4743 14.0405 39.5942 15.0005 38.9944L32.4005 28.918Z" fill="#424551"/>
<path opacity="0.2" d="M12.48 38.7548C12.12 38.395 12 37.7952 12 37.0754V37.1954C12 37.9151 12.24 38.5149 12.6 38.8748V38.7548H12.48ZM38.4 25.5595L32.4 28.9183L32.52 29.0382L38.4 25.6794C39.24 25.1996 39.6 24.5998 39.6 24C39.6 24.5998 39.12 25.0796 38.4 25.5595Z" fill="#424551"/>
<path opacity="0.2" d="M15 9.12521L38.4 22.4406C39.12 22.9204 39.6 23.4002 39.6 24C39.6 23.4002 39.24 22.8004 38.4 22.3206L15 9.00525C13.32 8.04559 12 8.76534 12 10.6847V10.8046C12 9.00525 13.32 8.16555 15 9.12521Z" fill="white"/>
</g>
<defs>
<linearGradient id="paint0_linear_2677:5751" x1="26.16" y1="10.4574" x2="6.02743" y2="30.5957" gradientUnits="userSpaceOnUse">
<stop stop-color="#00A0FF"/>
<stop offset="0.007" stop-color="#00A1FF"/>
<stop offset="0.26" stop-color="#00BEFF"/>
<stop offset="0.512" stop-color="#00D2FF"/>
<stop offset="0.76" stop-color="#00DFFF"/>
<stop offset="1" stop-color="#00E3FF"/>
</linearGradient>
<linearGradient id="paint1_linear_2677:5751" x1="40.6013" y1="24.0004" x2="11.5648" y2="24.0004" gradientUnits="userSpaceOnUse">
<stop stop-color="#FFE000"/>
<stop offset="0.409" stop-color="#FFBD00"/>
<stop offset="0.775" stop-color="#FFA500"/>
<stop offset="1" stop-color="#FF9C00"/>
</linearGradient>
<linearGradient id="paint2_linear_2677:5751" x1="29.7929" y1="26.7542" x2="2.49279" y2="54.0639" gradientUnits="userSpaceOnUse">
<stop stop-color="#FF3A44"/>
<stop offset="1" stop-color="#C31162"/>
</linearGradient>
<linearGradient id="paint3_linear_2677:5751" x1="8.75687" y1="0.219936" x2="20.9482" y2="12.4155" gradientUnits="userSpaceOnUse">
<stop stop-color="#32A071"/>
<stop offset="0.069" stop-color="#2DA771"/>
<stop offset="0.476" stop-color="#15CF74"/>
<stop offset="0.801" stop-color="#06E775"/>
<stop offset="1" stop-color="#00F076"/>
</linearGradient>
<clipPath id="clip0_2677:5751">
<rect width="162" height="48" fill="white"/>
</clipPath>
</defs>
</svg>

<svg width="162" height="48" fill="none" xmlns="http://www.w3.org/2000/svg"><g clip-path="url(#clip0_2677:5751)"><path d="M156 47.991H6c-3.36 0-6-2.64-6-5.998V6.006C0 2.646 2.64.008 6 .008h150c3.36 0 6 2.639 6 5.998v35.987c0 3.359-2.64 5.998-6 5.998z" fill="#424551"/><path d="M156 .967c2.76 0 5.04 2.28 5.04 5.039v35.987c0 2.76-2.28 5.038-5.04 5.038H6c-2.76 0-5.04-2.279-5.04-5.038V6.006C.96 3.246 3.24.967 6 .967h150zm0-.96H6c-3.36 0-6 2.76-6 5.999v35.987c0 3.359 2.64 5.998 6 5.998h150c3.36 0 6-2.64 6-5.998V6.006c0-3.24-2.64-5.998-6-5.998z" fill="#424551"/><path d="M56.88 12.244c0 .96-.24 1.8-.84 2.399-.72.72-1.56 1.08-2.64 1.08s-1.92-.36-2.64-1.08c-.72-.72-1.08-1.56-1.08-2.64 0-1.079.36-1.918 1.08-2.638.72-.72 1.56-1.08 2.64-1.08.48 0 .96.12 1.44.36s.84.48 1.08.84l-.6.6c-.48-.6-1.08-.84-1.92-.84-.72 0-1.44.24-1.92.84-.6.48-.84 1.2-.84 2.039 0 .84.24 1.56.84 2.04.6.479 1.2.839 1.92.839.84 0 1.44-.24 2.04-.84.36-.36.6-.84.6-1.44H53.4v-.96h3.48v.48zm5.52-3h-3.24v2.28h3v.84h-3v2.279h3.24v.96h-4.2V8.405h4.2v.84zm3.96 6.359h-.96V9.245h-2.04v-.84h5.04v.84h-2.04v6.358zm5.52 0V8.405h.96v7.198h-.96zm5.04 0h-.96V9.245h-2.04v-.84h4.92v.84H76.8v6.358h.12zm11.4-.96c-.72.72-1.56 1.08-2.64 1.08s-1.92-.36-2.64-1.08c-.72-.72-1.08-1.56-1.08-2.64 0-1.079.36-1.918 1.08-2.638.72-.72 1.56-1.08 2.64-1.08s1.92.36 2.64 1.08c.72.72 1.08 1.56 1.08 2.639 0 1.08-.36 1.92-1.08 2.639zm-4.56-.6c.48.48 1.2.84 1.92.84s1.44-.24 1.92-.84c.48-.48.84-1.2.84-2.04 0-.839-.24-1.559-.84-2.038-.48-.48-1.2-.84-1.92-.84s-1.44.24-1.92.84c-.48.48-.84 1.2-.84 2.039 0 .84.24 1.56.84 2.04zm6.96 1.56V8.405h1.08l3.48 5.638V8.405h.96v7.198h-.96l-3.72-5.878v5.878h-.84zM81.72 26.16c-2.88 0-5.16 2.159-5.16 5.158a5.12 5.12 0 005.16 5.158c2.88 0 5.16-2.16 5.16-5.158 0-3.12-2.28-5.159-5.16-5.159zm0 8.157c-1.56 0-2.88-1.32-2.88-3.12 0-1.799 1.32-3.118 2.88-3.118 1.56 0 2.88 1.2 2.88 3.119 0 1.8-1.32 3.119-2.88 3.119zM70.56 26.16c-2.88 0-5.16 2.159-5.16 5.158a5.12 5.12 0 005.16 5.158c2.88 0 5.16-2.16 5.16-5.158 0-3.12-2.28-5.159-5.16-5.159zm0 8.157c-1.56 0-2.88-1.32-2.88-3.12 0-1.799 1.32-3.118 2.88-3.118 1.56 0 2.88 1.2 2.88 3.119 0 1.8-1.32 3.119-2.88 3.119zm-13.32-6.598v2.16h5.16c-.12 1.199-.6 2.159-1.2 2.758-.72.72-1.92 1.56-3.96 1.56-3.24 0-5.64-2.52-5.64-5.758 0-3.24 2.52-5.758 5.64-5.758 1.68 0 3 .72 3.96 1.56l1.56-1.56c-1.32-1.2-3-2.16-5.4-2.16-4.32 0-8.04 3.6-8.04 7.918s3.72 7.917 8.04 7.917c2.4 0 4.08-.72 5.52-2.28 1.44-1.439 1.92-3.478 1.92-5.038 0-.48 0-.96-.12-1.319h-7.44zm54.48 1.68c-.48-1.2-1.68-3.24-4.32-3.24-2.64 0-4.8 2.04-4.8 5.159 0 2.879 2.16 5.158 5.04 5.158 2.28 0 3.72-1.44 4.2-2.28l-1.68-1.199c-.6.84-1.32 1.44-2.52 1.44s-1.92-.48-2.52-1.56l6.84-2.879-.24-.6zm-6.96 1.679c0-1.92 1.56-3 2.64-3 .84 0 1.68.48 1.92 1.08l-4.56 1.92zm-5.64 4.918h2.28V21.001h-2.28v14.995zm-3.6-8.757c-.6-.6-1.56-1.2-2.76-1.2-2.52 0-4.92 2.28-4.92 5.159s2.28 5.038 4.92 5.038c1.2 0 2.16-.6 2.64-1.2h.12v.72c0 1.92-1.08 3-2.76 3-1.32 0-2.28-.96-2.52-1.8l-1.92.84c.6 1.319 2.04 2.998 4.56 2.998 2.64 0 4.8-1.56 4.8-5.278V26.4h-2.16v.84zm-2.64 7.078c-1.56 0-2.88-1.32-2.88-3.12 0-1.799 1.32-3.118 2.88-3.118 1.56 0 2.76 1.32 2.76 3.119 0 1.8-1.2 3.119-2.76 3.119zM122.16 21h-5.4v14.995h2.28v-5.638h3.12c2.52 0 4.92-1.8 4.92-4.678 0-2.88-2.4-4.679-4.92-4.679zm.12 7.198h-3.24V23.04h3.24c1.68 0 2.64 1.44 2.64 2.519-.12 1.32-1.08 2.639-2.64 2.639zm13.8-2.16c-1.68 0-3.36.72-3.96 2.28l2.04.84c.48-.84 1.2-1.08 2.04-1.08 1.2 0 2.28.72 2.4 1.92v.12c-.36-.24-1.32-.6-2.28-.6-2.16 0-4.32 1.199-4.32 3.358 0 2.04 1.8 3.359 3.72 3.359 1.56 0 2.28-.72 2.88-1.44h.12v1.2h2.16v-5.758c-.24-2.639-2.28-4.198-4.8-4.198zm-.24 8.278c-.72 0-1.8-.36-1.8-1.32 0-1.2 1.32-1.56 2.4-1.56.96 0 1.44.24 2.04.48-.24 1.44-1.44 2.4-2.64 2.4zm12.6-7.918l-2.52 6.478h-.12l-2.64-6.478h-2.4l3.96 9.117-2.28 5.038h2.28l6.12-14.155h-2.4zm-20.16 9.597h2.28V21.001h-2.28v14.995z" fill="#fff"/><path d="M12.48 9.006c-.36.36-.48.96-.48 1.68v26.51c0 .72.24 1.32.6 1.68l.12.12L27.6 24.12v-.24L12.48 9.006z" fill="url(#paint0_linear_2677:5751)"/><path d="M32.4 29.157l-4.92-4.918v-.36l4.92-4.918.12.12 5.88 3.359c1.68.96 1.68 2.519 0 3.479l-6 3.238z" fill="url(#paint1_linear_2677:5751)"/><path d="M32.52 29.038L27.48 24l-15 14.995c.6.6 1.44.6 2.52.12l17.52-10.077z" fill="url(#paint2_linear_2677:5751)"/><path d="M32.52 18.962L15 9.006c-1.08-.6-1.92-.48-2.52.12L27.48 24l5.04-5.038z" fill="url(#paint3_linear_2677:5751)"/><path opacity=".2" d="M32.4 28.918L15 38.755c-.96.6-1.8.48-2.4 0l-.12.12.12.12c.6.48 1.44.6 2.4 0l17.4-10.077z" fill="#424551"/><path opacity=".2" d="M12.48 38.755c-.36-.36-.48-.96-.48-1.68v.12c0 .72.24 1.32.6 1.68v-.12h-.12zM38.4 25.559l-6 3.36.12.12 5.88-3.36c.84-.48 1.2-1.08 1.2-1.679 0 .6-.48 1.08-1.2 1.56z" fill="#424551"/><path opacity=".2" d="M15 9.125l23.4 13.316c.72.48 1.2.96 1.2 1.559 0-.6-.36-1.2-1.2-1.68L15 9.006c-1.68-.96-3-.24-3 1.68v.12c0-1.8 1.32-2.64 3-1.68z" fill="#fff"/></g><defs><linearGradient id="paint0_linear_2677:5751" x1="26.16" y1="10.457" x2="6.027" y2="30.596" gradientUnits="userSpaceOnUse"><stop stop-color="#00A0FF"/><stop offset=".007" stop-color="#00A1FF"/><stop offset=".26" stop-color="#00BEFF"/><stop offset=".512" stop-color="#00D2FF"/><stop offset=".76" stop-color="#00DFFF"/><stop offset="1" stop-color="#00E3FF"/></linearGradient><linearGradient id="paint1_linear_2677:5751" x1="40.601" y1="24" x2="11.565" y2="24" gradientUnits="userSpaceOnUse"><stop stop-color="#FFE000"/><stop offset=".409" stop-color="#FFBD00"/><stop offset=".775" stop-color="orange"/><stop offset="1" stop-color="#FF9C00"/></linearGradient><linearGradient id="paint2_linear_2677:5751" x1="29.793" y1="26.754" x2="2.493" y2="54.064" gradientUnits="userSpaceOnUse"><stop stop-color="#FF3A44"/><stop offset="1" stop-color="#C31162"/></linearGradient><linearGradient id="paint3_linear_2677:5751" x1="8.757" y1=".22" x2="20.948" y2="12.415" gradientUnits="userSpaceOnUse"><stop stop-color="#32A071"/><stop offset=".069" stop-color="#2DA771"/><stop offset=".476" stop-color="#15CF74"/><stop offset=".801" stop-color="#06E775"/><stop offset="1" stop-color="#00F076"/></linearGradient><clipPath id="clip0_2677:5751"><path fill="#fff" d="M0 0h162v48H0z"/></clipPath></defs></svg>
